src/pos-icons/pistol.svg

<svg height="24" viewBox="0 0 24 24" width="24" xmlns="http://www.w3.org/2000/svg"><path d="m7 5h16v4h-1v1h-6a1 1 0 0 0 -1 1v1a2 2 0 0 1 -2 2h-3.38c-.38 0-.73.22-.9.56l-2.45 4.89c-.17.34-.51.55-.89.55h-3.38s-3 0 1-6c0 0 3-4-1-4v-5h1l.5-1h3zm7 7v-1a1 1 0 0 0 -1-1h-1s-1 1 0 2a2 2 0 0 1 -2-2 1 1 0 0 0 -1 1v1a1 1 0 0 0 1 1h3a1 1 0 0 0 1-1z"/></svg>

<?xml version="1.0" encoding="UTF-8"?><!DOCTYPE svg PUBLIC "-//W3C//DTD SVG 1.1//EN" "http://www.w3.org/Graphics/SVG/1.1/DTD/svg11.dtd"><svg xmlns="http://www.w3.org/2000/svg" xmlns:xlink="http://www.w3.org/1999/xlink" version="1.1" id="mdi-pistol" width="24" height="24" viewBox="0 0 24 24"><path d="M7,5H23V9H22V10H16A1,1 0 0,0 15,11V12A2,2 0 0,1 13,14H9.62C9.24,14 8.89,14.22 8.72,14.56L6.27,19.45C6.1,19.79 5.76,20 5.38,20H2C2,20 -1,20 3,14C3,14 6,10 2,10V5H3L3.5,4H6.5L7,5M14,12V11A1,1 0 0,0 13,10H12C12,10 11,11 12,12A2,2 0 0,1 10,10A1,1 0 0,0 9,11V12A1,1 0 0,0 10,13H13A1,1 0 0,0 14,12Z" /></svg>
